X: 54
T: Le Moulin de Sanois
%R: march, reel
B: Stewart "A Select Collection of Airs, Jigs, Marches and Reels", ca.1784, p.25 #54
F: http://imslp.org/wiki/A_Select_Collection_of_Airs,_Jigs,_Marches_and_Reels_%28Various%29
Z: 2017 John Chambers <jc:trillian.mit.edu>
M: 2/4
L: 1/16
K: D
|:\
a4 f2d2 | A4 c2d2 | B2g2e2c2 | dcde d2d2 |\
a4 f2d2 | A4 c2d2 | B2g2e2c2 | d4 d4 ::\
F2F2G2A2 | G2A2 (B4 |
A2)g2e2c2 | dcde d2d2 |\
F2F2G2A2 | G2A2 (B4 | A2)g2e2c2 | d4 d4 ::\
(fd3) (af3) | (ec3) A4 | (BG3) (dB3) | (AF3) D4 |
(fd3) (af3) | (ec3) (Ac3) | B2d2 cBA^G | A4 A4 ::\
A4 F2d2 | B4 G2d2 | c2e2A2c2 | dcde d2f2 |\
A4 F2d2 | B4 G2g2 |
f2e2d2c2 | d4 H"_Fine."d4 :| [K:=f=c][K:Dm]\
|:\
(f4 e2).d2 | (d4 ^c2).d2| e2g2f2e2 | d^cde d2d2 |\
(f4 e2).d2 | (d4 ^c2).d2| e2g2f2e2 | d4 d4 :|

%%sep 1 1 500
%%sep 1 1 500

